img/resume_button.svg

<svg width="263" height="78" viewBox="0 0 263 78" fill="none" xmlns="http://www.w3.org/2000/svg"><g filter="url(#filter0_d_4073601)"><rect x="4" y="10" width="255" height="60" rx="23" fill="#405BA3"/><rect x="4" width="255" height="60" rx="23" fill="#597BD5"/><path d="M61.78 22.46c.2133-.4533.5667-.68 1.06-.68.3333 0 .6333.1067.9.32.2667.2133.4.48.4.8 0 .1467-.04.3133-.12.5l-5.54 11.92c-.12.2533-.3067.4533-.56.6-.24.1333-.5.2-.78.2s-.5467-.0667-.8-.2c-.24-.1467-.42-.3467-.54-.6L50.28 23.4c-.08-.1867-.12-.3467-.12-.48 0-.3333.1333-.6067.4-.82.28-.2133.5933-.32.94-.32.2267 0 .4333.06.62.18.2.1067.3533.2733.46.5l4.6 10.22 4.6-10.22zm5.9553 13.66c-.36 0-.66-.1-.9-.3-.2267-.2133-.34-.5133-.34-.9V27.2c0-.3867.1133-.68.34-.88.24-.2.54-.3.9-.3s.66.1.9.3c.24.2.36.4933.36.88v7.72c0 .3867-.12.6867-.36.9-.24.2-.54.3-.9.3zm0-11.88c-.4533 0-.8133-.12-1.08-.36-.2667-.2533-.4-.58-.4-.98s.1333-.72.4-.96c.2667-.24.6267-.36 1.08-.36.44 0 .7933.12 1.06.36.28.24.42.56.42.96 0 .4-.1333.7267-.4.98-.2667.24-.6267.36-1.08.36zm11.5781 9.08c.2267 0 .4067.0867.54.26.1467.1733.22.4067.22.7 0 .4133-.2466.76-.74 1.04-.4533.2533-.9666.46-1.54.62-.5733.1467-1.12.22-1.64.22-1.5733 0-2.82-.4533-3.74-1.36-.92-.9067-1.38-2.1467-1.38-3.72 0-1 .2-1.8867.6-2.66.4-.7733.96-1.3733 1.68-1.8.7334-.4267 1.56-.64 2.48-.64.88 0 1.6467.1933 2.3.58.6534.3867 1.16.9333 1.52 1.64.36.7067.54 1.54.54 2.5 0 .5733-.2533.86-.76.86h-5.9c.08.92.34 1.6.78 2.04.44.4267 1.08.64 1.92.64.4267 0 .8-.0533 1.12-.16.3334-.1067.7067-.2533 1.12-.44.4-.2133.6934-.32.88-.32zm-3.46-5.58c-.68 0-1.2266.2133-1.64.64-.4.4267-.64 1.04-.72 1.84h4.52c-.0266-.8133-.2266-1.4267-.6-1.84-.3733-.4267-.8933-.64-1.56-.64zm19.4088-.98c.0933-.24.2267-.42.4-.54.1867-.12.3867-.18.6-.18.3067 0 .58.1067.82.32.2533.2.38.4533.38.76 0 .1733-.0333.3267-.1.46l-3.3 7.74c-.1067.2533-.2733.4467-.5.58-.2133.1333-.4533.2-.72.2-.2533 0-.4933-.0667-.72-.2-.2133-.1333-.3733-.3267-.48-.58l-2.38-5.72-2.3 5.72c-.1067.2533-.2733.4467-.5.58-.2133.1333-.4533.2-.72.2-.2533 0-.4933-.0667-.72-.2-.2267-.1333-.3933-.3267-.5-.58l-3.28-7.74c-.0667-.1733-.1-.32-.1-.44 0-.3067.1333-.5667.4-.78.2667-.2267.56-.34.88-.34.2267 0 .4333.06.62.18.1867.12.3267.3.42.54l2.36 6.1 2.42-6.04c.1067-.2533.26-.44.46-.56.2-.1333.42-.2.66-.2.24 0 .46.0667.66.2.2.12.3533.3067.46.56l2.44 6.06 2.34-6.1zm20.8388 7.62c.16.24.24.4733.24.7 0 .3067-.127.56-.38.76-.24.2-.527.3-.86.3-.214 0-.42-.0467-.62-.14-.187-.1067-.347-.26-.48-.46l-2.66-4.04c-.267-.4267-.554-.7267-.86-.9-.294-.1733-.68-.26-1.16-.26h-1.96v4.48c0 .4-.114.72-.34.96-.227.2267-.534.34-.92.34-.387 0-.7-.1133-.94-.34-.227-.24-.34-.56-.34-.96v-11.7c0-.3867.106-.6867.32-.9.226-.2133.533-.32.92-.32h5c1.6 0 2.813.36 3.64 1.08.84.7067 1.26 1.7333 1.26 3.08 0 1.0933-.314 1.9933-.94 2.7-.614.6933-1.487 1.14-2.62 1.34.386.0933.726.26 1.02.5.293.24.58.5733.86 1l1.82 2.78zm-5.4-6.02c.973 0 1.686-.18 2.14-.54.453-.3733.68-.94.68-1.7 0-.7733-.227-1.3333-.68-1.68-.454-.36-1.167-.54-2.14-.54h-3.36v4.46h3.36zm15.546 4.96c.227 0 .407.0867.54.26.147.1733.22.4067.22.7 0 .4133-.247.76-.74 1.04-.453.2533-.967.46-1.54.62-.573.1467-1.12.22-1.64.22-1.573 0-2.82-.4533-3.74-1.36-.92-.9067-1.38-2.1467-1.38-3.72 0-1 .2-1.8867.6-2.66.4-.7733.96-1.3733 1.68-1.8.733-.4267 1.56-.64 2.48-.64.88 0 1.647.1933 2.3.58.653.3867 1.16.9333 1.52 1.64.36.7067.54 1.54.54 2.5 0 .5733-.253.86-.76.86h-5.9c.08.92.34 1.6.78 2.04.44.4267 1.08.64 1.92.64.427 0 .8-.0533 1.12-.16.333-.1067.707-.2533 1.12-.44.4-.2133.693-.32.88-.32zm-3.46-5.58c-.68 0-1.227.2133-1.64.64-.4.4267-.64 1.04-.72 1.84h4.52c-.027-.8133-.227-1.4267-.6-1.84-.373-.4267-.893-.64-1.56-.64zm9.885 8.42c-1.453 0-2.627-.2867-3.52-.86-.427-.2533-.64-.6133-.64-1.08 0-.2667.073-.48.22-.64.147-.1733.327-.26.54-.26.227 0 .54.1067.94.32.427.2.813.3533 1.16.46.36.1067.813.16 1.36.16.56 0 .993-.0933 1.3-.28.32-.1867.48-.4467.48-.78 0-.2267-.067-.4067-.2-.54-.12-.1333-.347-.2533-.68-.36-.32-.12-.813-.2533-1.48-.4-1.187-.24-2.04-.58-2.56-1.02-.507-.44-.76-1.0467-.76-1.82 0-.5867.173-1.1133.52-1.58.347-.48.82-.8467 1.42-1.1.613-.2667 1.307-.4 2.08-.4.56 0 1.1.0733 1.62.22.52.1333.987.3333 1.4.6.427.2667.64.62.64 1.06 0 .2667-.073.4933-.22.68-.147.1733-.327.26-.54.26-.147 0-.293-.0267-.44-.08-.133-.0667-.307-.16-.52-.28-.387-.2-.72-.3467-1-.44-.28-.1067-.627-.16-1.04-.16-.493 0-.887.1-1.18.3-.28.2-.42.4733-.42.82 0 .3333.147.5867.44.76.293.1733.86.3467 1.7.52.893.1867 1.593.4 2.1.64.507.24.867.54 1.08.9.227.36.34.82.34 1.38 0 .9067-.38 1.6333-1.14 2.18-.747.5467-1.747.82-3 .82zm13.887-10.14c.387 0 .693.1067.92.32.227.2133.34.5.34.86v7.76c0 .3467-.12.6267-.36.84-.227.2133-.527.32-.9.32-.36 0-.647-.1-.86-.3-.213-.2-.32-.4733-.32-.82v-.5c-.307.5333-.72.9467-1.24 1.24-.52.28-1.107.42-1.76.42-2.4 0-3.6-1.3467-3.6-4.04V27.2c0-.36.113-.6467.34-.86.227-.2133.527-.32.9-.32.387 0 .693.1067.92.32.227.2133.34.5.34.86v4.94c0 .6933.14 1.2067.42 1.54.28.3333.72.5 1.32.5.693 0 1.247-.2267 1.66-.68.427-.4667.64-1.08.64-1.84V27.2c0-.36.113-.6467.34-.86.227-.2133.527-.32.9-.32zm15.482-.04c1.067 0 1.88.32 2.44.96.573.6267.86 1.6467.86 3.06v4.92c0 .3867-.12.6867-.36.9-.227.2-.527.3-.9.3-.36 0-.66-.1-.9-.3-.227-.2133-.34-.5133-.34-.9V30c0-.7333-.133-1.2533-.4-1.56-.253-.32-.647-.48-1.18-.48-.653 0-1.173.2267-1.56.68-.387.44-.58 1.0467-.58 1.82v4.46c0 .3867-.12.6867-.36.9-.227.2-.52.3-.88.3s-.66-.1-.9-.3c-.24-.2133-.36-.5133-.36-.9V30c0-.7333-.133-1.2533-.4-1.56-.253-.32-.647-.48-1.18-.48-.653 0-1.173.2267-1.56.68-.373.44-.56 1.0467-.56 1.82v4.46c0 .3867-.12.6867-.36.9-.24.2-.54.3-.9.3s-.66-.1-.9-.3c-.227-.2133-.34-.5133-.34-.9v-7.74c0-.3733.12-.66.36-.86.24-.2.54-.3.9-.3.347 0 .627.1.84.3.227.1867.34.46.34.82v.48c.307-.5333.713-.94 1.22-1.22.52-.28 1.113-.42 1.78-.42 1.467 0 2.447.6133 2.94 1.84.293-.56.727-1.0067 1.3-1.34.573-.3333 1.22-.5 1.94-.5zm13.581 7.34c.227 0 .407.0867.54.26.147.1733.22.4067.22.7 0 .4133-.247.76-.74 1.04-.453.2533-.967.46-1.54.62-.573.1467-1.12.22-1.64.22-1.573 0-2.82-.4533-3.74-1.36-.92-.9067-1.38-2.1467-1.38-3.72 0-1 .2-1.8867.6-2.66.4-.7733.96-1.3733 1.68-1.8.733-.4267 1.56-.64 2.48-.64.88 0 1.647.1933 2.3.58.653.3867 1.16.9333 1.52 1.64.36.7067.54 1.54.54 2.5 0 .5733-.253.86-.76.86h-5.9c.08.92.34 1.6.78 2.04.44.4267 1.08.64 1.92.64.427 0 .8-.0533 1.12-.16.333-.1067.707-.2533 1.12-.44.4-.2133.693-.32.88-.32zm-3.46-5.58c-.68 0-1.227.2133-1.64.64-.4.4267-.64 1.04-.72 1.84h4.52c-.027-.8133-.227-1.4267-.6-1.84-.373-.4267-.893-.64-1.56-.64zM194.25 30.7134h14.825l-4.538 5.2938c-.105.1228-.184.2645-.232.417-.049.1524-.066.3127-.051.4717.03.3211.191.6172.446.8233.255.2061.584.3053.915.2757.33-.0296.635-.1856.848-.4335l6.25-7.2851c.042-.0579.079-.1188.112-.1821 0-.0607.063-.0971.088-.1579.056-.1392.086-.2874.087-.4371-.001-.1497-.031-.2978-.087-.4371 0-.0607-.063-.0971-.088-.1578-.033-.0633-.07-.1242-.112-.1821l-6.25-7.2851c-.118-.1371-.265-.2473-.432-.3228-.166-.0756-.347-.1146-.531-.1143-.292-.0006-.575.0983-.8.2793-.127.1019-.231.2271-.308.3683-.077.1413-.124.2959-.139.4549-.015.159.002.3194.051.4719.049.1525.128.2942.233.4169l4.538 5.2938H194.25c-.332 0-.649.1279-.884.3556-.234.2277-.366.5365-.366.8585 0 .3221.132.6309.366.8586.235.2277.552.3556.884.3556z" fill="#D5E8FE"/></g><defs><filter id="filter0_d_4073601" x="0" y="0" width="263" height="78" filterUnits="userSpaceOnUse" color-interpolation-filters="sRGB"><feFlood flood-opacity="0" result="BackgroundImageFix"/><feColorMatrix in="SourceAlpha" values="0 0 0 0 0 0 0 0 0 0 0 0 0 0 0 0 0 0 127 0" result="hardAlpha"/><feOffset dy="4"/><feGaussianBlur stdDeviation="2"/><feComposite in2="hardAlpha" operator="out"/><feColorMatrix values="0 0 0 0 0 0 0 0 0 0 0 0 0 0 0 0 0 0 0.25 0"/><feBlend in2="BackgroundImageFix" result="effect1_dropShadow_4073601"/><feBlend in="SourceGraphic" in2="effect1_dropShadow_4073601" result="shape"/></filter></defs></svg>

<svg width="263" height="78" viewBox="0 0 263 78" fill="none" xmlns="http://www.w3.org/2000/svg">
<g filter="url(#filter0_d)">
<g filter="url(#filter1_d)">
<rect x="4" y="10" width="255" height="60" rx="23" fill="#405BA3"/>
<rect x="4" width="255" height="60" rx="23" fill="#597BD5"/>
<path d="M61.78 22.46C61.9933 22.0067 62.3467 21.78 62.84 21.78C63.1733 21.78 63.4733 21.8867 63.74 22.1C64.0067 22.3133 64.14 22.58 64.14 22.9C64.14 23.0467 64.1 23.2133 64.02 23.4L58.48 35.32C58.36 35.5733 58.1733 35.7733 57.92 35.92C57.68 36.0533 57.42 36.12 57.14 36.12C56.86 36.12 56.5933 36.0533 56.34 35.92C56.1 35.7733 55.92 35.5733 55.8 35.32L50.28 23.4C50.2 23.2133 50.16 23.0533 50.16 22.92C50.16 22.5867 50.2933 22.3133 50.56 22.1C50.84 21.8867 51.1533 21.78 51.5 21.78C51.7267 21.78 51.9333 21.84 52.12 21.96C52.32 22.0667 52.4733 22.2333 52.58 22.46L57.18 32.68L61.78 22.46ZM67.7353 36.12C67.3753 36.12 67.0753 36.02 66.8353 35.82C66.6086 35.6067 66.4953 35.3067 66.4953 34.92V27.2C66.4953 26.8133 66.6086 26.52 66.8353 26.32C67.0753 26.12 67.3753 26.02 67.7353 26.02C68.0953 26.02 68.3953 26.12 68.6353 26.32C68.8753 26.52 68.9953 26.8133 68.9953 27.2V34.92C68.9953 35.3067 68.8753 35.6067 68.6353 35.82C68.3953 36.02 68.0953 36.12 67.7353 36.12ZM67.7353 24.24C67.282 24.24 66.922 24.12 66.6553 23.88C66.3886 23.6267 66.2553 23.3 66.2553 22.9C66.2553 22.5 66.3886 22.18 66.6553 21.94C66.922 21.7 67.282 21.58 67.7353 21.58C68.1753 21.58 68.5286 21.7 68.7953 21.94C69.0753 22.18 69.2153 22.5 69.2153 22.9C69.2153 23.3 69.082 23.6267 68.8153 23.88C68.5486 24.12 68.1886 24.24 67.7353 24.24ZM79.3134 33.32C79.5401 33.32 79.7201 33.4067 79.8534 33.58C80.0001 33.7533 80.0734 33.9867 80.0734 34.28C80.0734 34.6933 79.8268 35.04 79.3334 35.32C78.8801 35.5733 78.3668 35.78 77.7934 35.94C77.2201 36.0867 76.6734 36.16 76.1534 36.16C74.5801 36.16 73.3334 35.7067 72.4134 34.8C71.4934 33.8933 71.0334 32.6533 71.0334 31.08C71.0334 30.08 71.2334 29.1933 71.6334 28.42C72.0334 27.6467 72.5934 27.0467 73.3134 26.62C74.0468 26.1933 74.8734 25.98 75.7934 25.98C76.6734 25.98 77.4401 26.1733 78.0934 26.56C78.7468 26.9467 79.2534 27.4933 79.6134 28.2C79.9734 28.9067 80.1534 29.74 80.1534 30.7C80.1534 31.2733 79.9001 31.56 79.3934 31.56H73.4934C73.5734 32.48 73.8334 33.16 74.2734 33.6C74.7134 34.0267 75.3534 34.24 76.1934 34.24C76.6201 34.24 76.9934 34.1867 77.3134 34.08C77.6468 33.9733 78.0201 33.8267 78.4334 33.64C78.8334 33.4267 79.1268 33.32 79.3134 33.32ZM75.8534 27.74C75.1734 27.74 74.6268 27.9533 74.2134 28.38C73.8134 28.8067 73.5734 29.42 73.4934 30.22H78.0134C77.9868 29.4067 77.7868 28.7933 77.4134 28.38C77.0401 27.9533 76.5201 27.74 75.8534 27.74ZM95.2622 26.76C95.3555 26.52 95.4889 26.34 95.6622 26.22C95.8489 26.1 96.0489 26.04 96.2622 26.04C96.5689 26.04 96.8422 26.1467 97.0822 26.36C97.3355 26.56 97.4622 26.8133 97.4622 27.12C97.4622 27.2933 97.4289 27.4467 97.3622 27.58L94.0622 35.32C93.9555 35.5733 93.7889 35.7667 93.5622 35.9C93.3489 36.0333 93.1089 36.1 92.8422 36.1C92.5889 36.1 92.3489 36.0333 92.1222 35.9C91.9089 35.7667 91.7489 35.5733 91.6422 35.32L89.2622 29.6L86.9622 35.32C86.8555 35.5733 86.6889 35.7667 86.4622 35.9C86.2489 36.0333 86.0089 36.1 85.7422 36.1C85.4889 36.1 85.2489 36.0333 85.0222 35.9C84.7955 35.7667 84.6289 35.5733 84.5222 35.32L81.2422 27.58C81.1755 27.4067 81.1422 27.26 81.1422 27.14C81.1422 26.8333 81.2755 26.5733 81.5422 26.36C81.8089 26.1333 82.1022 26.02 82.4222 26.02C82.6489 26.02 82.8555 26.08 83.0422 26.2C83.2289 26.32 83.3689 26.5 83.4622 26.74L85.8222 32.84L88.2422 26.8C88.3489 26.5467 88.5022 26.36 88.7022 26.24C88.9022 26.1067 89.1222 26.04 89.3622 26.04C89.6022 26.04 89.8222 26.1067 90.0222 26.24C90.2222 26.36 90.3755 26.5467 90.4822 26.8L92.9222 32.86L95.2622 26.76ZM116.101 34.38C116.261 34.62 116.341 34.8533 116.341 35.08C116.341 35.3867 116.214 35.64 115.961 35.84C115.721 36.04 115.434 36.14 115.101 36.14C114.887 36.14 114.681 36.0933 114.481 36C114.294 35.8933 114.134 35.74 114.001 35.54L111.341 31.5C111.074 31.0733 110.787 30.7733 110.481 30.6C110.187 30.4267 109.801 30.34 109.321 30.34H107.361V34.82C107.361 35.22 107.247 35.54 107.021 35.78C106.794 36.0067 106.487 36.12 106.101 36.12C105.714 36.12 105.401 36.0067 105.161 35.78C104.934 35.54 104.821 35.22 104.821 34.82V23.12C104.821 22.7333 104.927 22.4333 105.141 22.22C105.367 22.0067 105.674 21.9 106.061 21.9H111.061C112.661 21.9 113.874 22.26 114.701 22.98C115.541 23.6867 115.961 24.7133 115.961 26.06C115.961 27.1533 115.647 28.0533 115.021 28.76C114.407 29.4533 113.534 29.9 112.401 30.1C112.787 30.1933 113.127 30.36 113.421 30.6C113.714 30.84 114.001 31.1733 114.281 31.6L116.101 34.38ZM110.701 28.36C111.674 28.36 112.387 28.18 112.841 27.82C113.294 27.4467 113.521 26.88 113.521 26.12C113.521 25.3467 113.294 24.7867 112.841 24.44C112.387 24.08 111.674 23.9 110.701 23.9H107.341V28.36H110.701ZM126.247 33.32C126.474 33.32 126.654 33.4067 126.787 33.58C126.934 33.7533 127.007 33.9867 127.007 34.28C127.007 34.6933 126.76 35.04 126.267 35.32C125.814 35.5733 125.3 35.78 124.727 35.94C124.154 36.0867 123.607 36.16 123.087 36.16C121.514 36.16 120.267 35.7067 119.347 34.8C118.427 33.8933 117.967 32.6533 117.967 31.08C117.967 30.08 118.167 29.1933 118.567 28.42C118.967 27.6467 119.527 27.0467 120.247 26.62C120.98 26.1933 121.807 25.98 122.727 25.98C123.607 25.98 124.374 26.1733 125.027 26.56C125.68 26.9467 126.187 27.4933 126.547 28.2C126.907 28.9067 127.087 29.74 127.087 30.7C127.087 31.2733 126.834 31.56 126.327 31.56H120.427C120.507 32.48 120.767 33.16 121.207 33.6C121.647 34.0267 122.287 34.24 123.127 34.24C123.554 34.24 123.927 34.1867 124.247 34.08C124.58 33.9733 124.954 33.8267 125.367 33.64C125.767 33.4267 126.06 33.32 126.247 33.32ZM122.787 27.74C122.107 27.74 121.56 27.9533 121.147 28.38C120.747 28.8067 120.507 29.42 120.427 30.22H124.947C124.92 29.4067 124.72 28.7933 124.347 28.38C123.974 27.9533 123.454 27.74 122.787 27.74ZM132.672 36.16C131.219 36.16 130.045 35.8733 129.152 35.3C128.725 35.0467 128.512 34.6867 128.512 34.22C128.512 33.9533 128.585 33.74 128.732 33.58C128.879 33.4067 129.059 33.32 129.272 33.32C129.499 33.32 129.812 33.4267 130.212 33.64C130.639 33.84 131.025 33.9933 131.372 34.1C131.732 34.2067 132.185 34.26 132.732 34.26C133.292 34.26 133.725 34.1667 134.032 33.98C134.352 33.7933 134.512 33.5333 134.512 33.2C134.512 32.9733 134.445 32.7933 134.312 32.66C134.192 32.5267 133.965 32.4067 133.632 32.3C133.312 32.18 132.819 32.0467 132.152 31.9C130.965 31.66 130.112 31.32 129.592 30.88C129.085 30.44 128.832 29.8333 128.832 29.06C128.832 28.4733 129.005 27.9467 129.352 27.48C129.699 27 130.172 26.6333 130.772 26.38C131.385 26.1133 132.079 25.98 132.852 25.98C133.412 25.98 133.952 26.0533 134.472 26.2C134.992 26.3333 135.459 26.5333 135.872 26.8C136.299 27.0667 136.512 27.42 136.512 27.86C136.512 28.1267 136.439 28.3533 136.292 28.54C136.145 28.7133 135.965 28.8 135.752 28.8C135.605 28.8 135.459 28.7733 135.312 28.72C135.179 28.6533 135.005 28.56 134.792 28.44C134.405 28.24 134.072 28.0933 133.792 28C133.512 27.8933 133.165 27.84 132.752 27.84C132.259 27.84 131.865 27.94 131.572 28.14C131.292 28.34 131.152 28.6133 131.152 28.96C131.152 29.2933 131.299 29.5467 131.592 29.72C131.885 29.8933 132.452 30.0667 133.292 30.24C134.185 30.4267 134.885 30.64 135.392 30.88C135.899 31.12 136.259 31.42 136.472 31.78C136.699 32.14 136.812 32.6 136.812 33.16C136.812 34.0667 136.432 34.7933 135.672 35.34C134.925 35.8867 133.925 36.16 132.672 36.16ZM146.559 26.02C146.946 26.02 147.252 26.1267 147.479 26.34C147.706 26.5533 147.819 26.84 147.819 27.2V34.96C147.819 35.3067 147.699 35.5867 147.459 35.8C147.232 36.0133 146.932 36.12 146.559 36.12C146.199 36.12 145.912 36.02 145.699 35.82C145.486 35.62 145.379 35.3467 145.379 35V34.5C145.072 35.0333 144.659 35.4467 144.139 35.74C143.619 36.02 143.032 36.16 142.379 36.16C139.979 36.16 138.779 34.8133 138.779 32.12V27.2C138.779 26.84 138.892 26.5533 139.119 26.34C139.346 26.1267 139.646 26.02 140.019 26.02C140.406 26.02 140.712 26.1267 140.939 26.34C141.166 26.5533 141.279 26.84 141.279 27.2V32.14C141.279 32.8333 141.419 33.3467 141.699 33.68C141.979 34.0133 142.419 34.18 143.019 34.18C143.712 34.18 144.266 33.9533 144.679 33.5C145.106 33.0333 145.319 32.42 145.319 31.66V27.2C145.319 26.84 145.432 26.5533 145.659 26.34C145.886 26.1267 146.186 26.02 146.559 26.02ZM162.041 25.98C163.108 25.98 163.921 26.3 164.481 26.94C165.054 27.5667 165.341 28.5867 165.341 30V34.92C165.341 35.3067 165.221 35.6067 164.981 35.82C164.754 36.02 164.454 36.12 164.081 36.12C163.721 36.12 163.421 36.02 163.181 35.82C162.954 35.6067 162.841 35.3067 162.841 34.92V30C162.841 29.2667 162.708 28.7467 162.441 28.44C162.188 28.12 161.794 27.96 161.261 27.96C160.608 27.96 160.088 28.1867 159.701 28.64C159.314 29.08 159.121 29.6867 159.121 30.46V34.92C159.121 35.3067 159.001 35.6067 158.761 35.82C158.534 36.02 158.241 36.12 157.881 36.12C157.521 36.12 157.221 36.02 156.981 35.82C156.741 35.6067 156.621 35.3067 156.621 34.92V30C156.621 29.2667 156.488 28.7467 156.221 28.44C155.968 28.12 155.574 27.96 155.041 27.96C154.388 27.96 153.868 28.1867 153.481 28.64C153.108 29.08 152.921 29.6867 152.921 30.46V34.92C152.921 35.3067 152.801 35.6067 152.561 35.82C152.321 36.02 152.021 36.12 151.661 36.12C151.301 36.12 151.001 36.02 150.761 35.82C150.534 35.6067 150.421 35.3067 150.421 34.92V27.18C150.421 26.8067 150.541 26.52 150.781 26.32C151.021 26.12 151.321 26.02 151.681 26.02C152.028 26.02 152.308 26.12 152.521 26.32C152.748 26.5067 152.861 26.78 152.861 27.14V27.62C153.168 27.0867 153.574 26.68 154.081 26.4C154.601 26.12 155.194 25.98 155.861 25.98C157.328 25.98 158.308 26.5933 158.801 27.82C159.094 27.26 159.528 26.8133 160.101 26.48C160.674 26.1467 161.321 25.98 162.041 25.98ZM175.622 33.32C175.849 33.32 176.029 33.4067 176.162 33.58C176.309 33.7533 176.382 33.9867 176.382 34.28C176.382 34.6933 176.135 35.04 175.642 35.32C175.189 35.5733 174.675 35.78 174.102 35.94C173.529 36.0867 172.982 36.16 172.462 36.16C170.889 36.16 169.642 35.7067 168.722 34.8C167.802 33.8933 167.342 32.6533 167.342 31.08C167.342 30.08 167.542 29.1933 167.942 28.42C168.342 27.6467 168.902 27.0467 169.622 26.62C170.355 26.1933 171.182 25.98 172.102 25.98C172.982 25.98 173.749 26.1733 174.402 26.56C175.055 26.9467 175.562 27.4933 175.922 28.2C176.282 28.9067 176.462 29.74 176.462 30.7C176.462 31.2733 176.209 31.56 175.702 31.56H169.802C169.882 32.48 170.142 33.16 170.582 33.6C171.022 34.0267 171.662 34.24 172.502 34.24C172.929 34.24 173.302 34.1867 173.622 34.08C173.955 33.9733 174.329 33.8267 174.742 33.64C175.142 33.4267 175.435 33.32 175.622 33.32ZM172.162 27.74C171.482 27.74 170.935 27.9533 170.522 28.38C170.122 28.8067 169.882 29.42 169.802 30.22H174.322C174.295 29.4067 174.095 28.7933 173.722 28.38C173.349 27.9533 172.829 27.74 172.162 27.74Z" fill="#D5E8FE"/>
<path d="M194.25 30.7134H209.075L204.537 36.0072C204.432 36.13 204.353 36.2717 204.305 36.4242C204.256 36.5766 204.239 36.7369 204.254 36.8959C204.284 37.217 204.445 37.5131 204.7 37.7192C204.955 37.9253 205.284 38.0245 205.615 37.9949C205.945 37.9653 206.25 37.8093 206.463 37.5614L212.713 30.2763C212.755 30.2184 212.792 30.1575 212.825 30.0942C212.825 30.0335 212.888 29.9971 212.913 29.9363C212.969 29.7971 212.999 29.6489 213 29.4992C212.999 29.3495 212.969 29.2014 212.913 29.0621C212.913 29.0014 212.85 28.965 212.825 28.9043C212.792 28.841 212.755 28.7801 212.713 28.7222L206.463 21.4371C206.345 21.3 206.198 21.1898 206.031 21.1143C205.865 21.0387 205.684 20.9997 205.5 21C205.208 20.9994 204.925 21.0983 204.7 21.2793C204.573 21.3812 204.469 21.5064 204.392 21.6476C204.315 21.7889 204.268 21.9435 204.253 22.1025C204.238 22.2615 204.255 22.4219 204.304 22.5744C204.353 22.7269 204.432 22.8686 204.537 22.9913L209.075 28.2851H194.25C193.918 28.2851 193.601 28.413 193.366 28.6407C193.132 28.8684 193 29.1772 193 29.4992C193 29.8213 193.132 30.1301 193.366 30.3578C193.601 30.5855 193.918 30.7134 194.25 30.7134Z" fill="#D5E8FE"/>
</g>
</g>
<defs>
<filter id="filter0_d" x="0" y="0" width="263" height="78" filterUnits="userSpaceOnUse" color-interpolation-filters="sRGB">
<feFlood flood-opacity="0" result="BackgroundImageFix"/>
<feColorMatrix in="SourceAlpha" type="matrix" values="0 0 0 0 0 0 0 0 0 0 0 0 0 0 0 0 0 0 127 0" result="hardAlpha"/>
<feOffset dy="4"/>
<feGaussianBlur stdDeviation="2"/>
<feComposite in2="hardAlpha" operator="out"/>
<feColorMatrix type="matrix" values="0 0 0 0 0 0 0 0 0 0 0 0 0 0 0 0 0 0 0.25 0"/>
<feBlend mode="normal" in2="BackgroundImageFix" result="effect1_dropShadow"/>
<feBlend mode="normal" in="SourceGraphic" in2="effect1_dropShadow" result="shape"/>
</filter>
<filter id="filter1_d" x="0" y="0" width="263" height="78" filterUnits="userSpaceOnUse" color-interpolation-filters="sRGB">
<feFlood flood-opacity="0" result="BackgroundImageFix"/>
<feColorMatrix in="SourceAlpha" type="matrix" values="0 0 0 0 0 0 0 0 0 0 0 0 0 0 0 0 0 0 127 0" result="hardAlpha"/>
<feOffset dy="4"/>
<feGaussianBlur stdDeviation="2"/>
<feComposite in2="hardAlpha" operator="out"/>
<feColorMatrix type="matrix" values="0 0 0 0 0 0 0 0 0 0 0 0 0 0 0 0 0 0 0.25 0"/>
<feBlend mode="normal" in2="BackgroundImageFix" result="effect1_dropShadow"/>
<feBlend mode="normal" in="SourceGraphic" in2="effect1_dropShadow" result="shape"/>
</filter>
</defs>
</svg>
